static/images/mobile/copyright/wikipedia-wordmark-pi.svg

<svg width="120" height="24" viewBox="0 0 120 24" fill="none" xmlns="http://www.w3.org/2000/svg">
<path fill-rule="evenodd" clip-rule="evenodd" d="M4.82183 9.17958L8.29862 9.17957L8.6666 9.17958L18.196 9.17957V13.2019C17.0625 12.0755 15.9332 11.5123 14.8081 11.5123C14.1821 11.5123 13.4165 11.6594 12.5114 11.9536C11.6147 12.2394 10.9379 12.6429 10.4811 13.1641C10.0243 13.6853 9.79592 14.2359 9.79592 14.8159C9.79592 15.6986 10.295 16.6485 11.2932 17.6656C12.2999 18.6744 13.3192 19.1788 14.3513 19.1788C15.4679 19.1788 16.7495 18.6828 18.196 17.6909V21.8772L19.6553 23.4911H20.1882V9.17957L23.6777 9.17958L24.0457 9.17957L26.5073 9.17958V21.8772L27.9285 23.4911H28.4995V9.17958L31.9763 9.17957L32.3443 9.17958L40.1227 9.17957V13.5676C39.006 12.2226 37.7202 11.5501 36.2652 11.5501C35.5039 11.5501 34.8356 11.8107 34.2603 12.3319C33.6936 12.8447 33.4102 13.5508 33.4102 14.4503C33.4102 15.4674 33.7189 16.308 34.3365 16.9721C34.954 17.6278 35.783 17.9557 36.8235 17.9557C37.864 17.9557 38.9637 17.4597 40.1227 16.4678V21.8519L41.6073 23.529H42.1148V15.0807C43.0623 14.2485 43.959 13.8324 44.8049 13.8324C45.3971 13.8324 45.8412 14.0215 46.1373 14.3998C46.4418 14.7781 46.5941 15.3455 46.5941 16.1021C46.5941 17.1276 46.1965 18.3255 45.4013 19.6957L46.8225 21.0828C47.533 19.8386 47.8883 18.6534 47.8883 17.5269C47.8883 16.0979 47.4569 14.942 46.5941 14.0594C45.7397 13.1767 44.788 12.7354 43.739 12.7354C43.1215 12.7354 42.5801 12.8699 42.1148 13.1389V9.17957H49.3095H49.6775H51.2129V13.1389C51.2129 14.0131 51.4793 14.7571 52.0123 15.3708C52.5537 15.976 53.2008 16.4972 53.9537 16.9343C54.7066 17.3714 55.4637 17.59 56.225 17.59C57.1133 17.59 57.8746 17.3168 58.509 16.7704V21.8519L60.0064 23.529H60.5012V9.17957L63.9907 9.17958L64.3587 9.17957L66.8204 9.17958V21.8772L68.2415 23.4911H68.8125V9.17958H72.2893H72.6573H75.119V21.8772L76.5401 23.4911H77.1111V9.17958H80.9559L90.5869 9.17957V11.5375H86.1077C85.304 11.5375 84.7034 11.672 84.3058 11.941C83.9082 12.21 83.7094 12.6093 83.7094 13.1389C83.7094 13.7441 84.1662 14.6394 85.0798 15.8247C85.9934 17.0015 86.6237 17.59 86.9705 17.59C87.1228 17.59 87.6515 17.4723 88.5566 17.2369C89.4702 17.01 90.092 16.8965 90.4219 16.8965C90.7349 16.8965 90.9929 17.01 91.196 17.2369C91.4074 17.4639 91.5132 17.7371 91.5132 18.0565C91.5132 18.6366 91.1536 19.1956 90.4346 19.7336C89.7156 20.2632 88.9035 20.5279 87.9983 20.5279C87.0086 20.5279 86.0104 20.1287 85.0037 19.3301C84.0055 18.5231 82.9988 17.3168 81.9837 15.7112L81.4254 15.976C82.7112 18.0187 83.9886 19.5528 85.2575 20.5784C86.5264 21.5955 87.7826 22.1041 89.0261 22.1041C89.982 22.1041 90.8449 21.8309 91.6147 21.2845C92.3929 20.7297 92.7821 20.0824 92.7821 19.3427C92.7821 18.4432 92.376 17.5816 91.5639 16.7578C90.7603 15.9256 89.6394 15.5094 88.2013 15.5094C87.7699 15.5094 87.3258 15.5599 86.869 15.6608C86.4122 15.7616 86.1669 15.8121 86.133 15.8121C85.9554 15.8121 85.7228 15.5935 85.4351 15.1564C85.1475 14.7109 85.0037 14.3662 85.0037 14.1224C85.0037 13.5928 85.4817 13.328 86.4376 13.328H92.376L92.1096 9.17957L95.7386 9.17957L96.0939 9.17957L99.926 9.17957C100.518 9.74278 100.814 10.4237 100.814 11.2223C100.814 12.231 100.484 13.0212 99.8245 13.5928C99.1646 14.1561 98.1749 14.4965 96.8552 14.6142V14.8664C98.3441 16.5308 99.5242 17.653 100.395 18.233C101.275 18.8131 102.134 19.1031 102.971 19.1031C104.13 19.1031 105.09 18.7963 105.852 18.1826V21.8141L107.577 23.529H107.844V9.17957H111.333H111.701H114.163V21.7763L115.686 23.529H116.155V9.17957H120V7.38905H111.701H111.333H96.0939H95.7386L92.5029 7.38905C90.9041 4.92604 89.0853 3.08087 87.0466 1.85356C85.0164 0.617851 82.7704 0 80.3088 0C78.7438 0 77.3776 0.294212 76.2102 0.882652C74.7383 1.6308 74.0023 2.711 74.0023 4.12325C74.0023 5.31693 74.5184 6.40553 75.5504 7.38905H72.6573H72.2893H68.8125C68.085 5.21185 67.2687 3.55582 66.3636 2.42098C65.0777 0.806992 63.4958 0 61.6179 0C60.3997 0 59.3973 0.382477 58.6106 1.14745C57.8154 1.91241 57.4178 2.89594 57.4178 4.09802C57.4178 5.24967 57.7646 6.34668 58.4583 7.38905L49.6775 7.38905H49.3095L42.1148 7.38905C40.6683 4.92604 39.0272 3.08087 37.1915 1.85356C35.3558 0.617851 33.3256 0 31.1008 0C29.6288 0 28.3599 0.315231 27.2941 0.945702C26.0252 1.69385 25.3907 2.75303 25.3907 4.12325C25.3907 5.31693 25.9067 6.40553 26.9388 7.38905L24.0457 7.38905L23.6777 7.38905H20.2136C18.6148 4.92604 16.796 3.08087 14.7573 1.85356C12.7271 0.617851 10.4811 0 8.01946 0C6.45448 0 5.0883 0.294212 3.92091 0.882652C2.44898 1.6308 1.71302 2.711 1.71302 4.12325C1.71302 5.31693 2.22904 6.40553 3.26108 7.38905H0V9.17958H2.82965V21.8772L4.25082 23.4911H4.82183V9.17958ZM91.6401 7.38905C90.0243 5.49766 88.2986 4.08121 86.4629 3.13972C84.6273 2.18982 82.6858 1.71487 80.6387 1.71487C79.0906 1.71487 77.9317 1.97125 77.1619 2.48403C76.3921 2.9884 76.0072 3.74496 76.0072 4.75371C76.0072 5.65317 76.2737 6.53162 76.8066 7.38905L80.5879 7.38905L80.9559 7.38905H91.6401ZM59.981 7.38905H63.9907L64.3587 7.38905L68.0766 7.38905C67.2222 5.49766 66.3043 4.07701 65.323 3.12711C64.3418 2.17721 63.297 1.70226 62.1889 1.70226C61.2668 1.70226 60.5731 1.95444 60.1079 2.45882C59.6426 2.96319 59.41 3.71975 59.41 4.72849C59.41 5.57751 59.6003 6.46437 59.981 7.38905ZM41.252 7.38905C39.8223 5.49766 38.2954 4.08121 36.6712 3.13972C35.0471 2.18982 33.3256 1.71487 31.5068 1.71487C30.1364 1.71487 29.1086 1.97125 28.4234 2.48403C27.7382 2.9884 27.3956 3.74496 27.3956 4.75371C27.3956 5.65317 27.662 6.53162 28.195 7.38905L31.9763 7.38905L32.3443 7.38905H41.252ZM19.3507 7.38905C17.735 5.49766 16.0093 4.08121 14.1736 3.13972C12.338 2.18982 10.3965 1.71487 8.34937 1.71487C6.80131 1.71487 5.64238 1.97125 4.87258 2.48403C4.10278 2.9884 3.71788 3.74496 3.71788 4.75371C3.71788 5.65317 3.98435 6.53162 4.51729 7.38905L8.29862 7.38905L8.6666 7.38905H19.3507ZM18.196 14.0594V14.6898C18.1199 15.1354 17.3882 15.7658 16.0008 16.5812C14.6135 17.3882 13.6322 17.7917 13.057 17.7917C12.5579 17.7917 12.1222 17.6152 11.75 17.2621C11.3778 16.9007 11.1917 16.4509 11.1917 15.9129C11.1917 15.232 11.7458 14.6226 12.854 14.0846C13.9621 13.5382 15.0153 13.265 16.0135 13.265C16.741 13.265 17.4685 13.5298 18.196 14.0594ZM40.1227 14.1729V14.4124C38.3462 16.0432 36.9716 16.8586 35.9987 16.8586C35.4743 16.8586 35.0597 16.7157 34.7552 16.4299C34.4591 16.1357 34.3111 15.7616 34.3111 15.3077C34.3111 14.7865 34.5987 14.3242 35.1739 13.9207C35.7576 13.5088 36.574 13.3028 37.6229 13.3028C38.638 13.3028 39.4713 13.5928 40.1227 14.1729ZM58.509 9.17957H53.205V14.0972C53.205 15.1984 53.4123 15.8919 53.8268 16.1777C54.2413 16.4551 54.7277 16.5938 55.286 16.5938C56.2842 16.5938 57.3586 15.9466 58.509 14.652V9.17957ZM105.852 9.17957H100.687C101.897 10.0034 102.502 11.0205 102.502 12.231C102.502 13.223 102.189 14.0426 101.563 14.6898C100.945 15.3287 100.015 15.7911 98.7713 16.0769C99.3719 16.6233 99.9345 17.031 100.459 17.3C100.992 17.569 101.491 17.7035 101.956 17.7035C102.802 17.7035 103.576 17.4723 104.278 17.0099C104.989 16.5476 105.429 16.1273 105.598 15.749C105.767 15.3707 105.852 14.6352 105.852 13.5424V9.17957Z" fill="black"/>
</svg>

<svg xmlns="http://www.w3.org/2000/svg" width="120" height="24" fill="none"><path fill="#000" fill-rule="evenodd" d="M4.822 9.18H18.196v4.022c-1.134-1.127-2.263-1.69-3.388-1.69-.626 0-1.392.147-2.297.442-.896.285-1.573.689-2.03 1.21-.457.521-.685 1.072-.685 1.652 0 .883.499 1.832 1.497 2.85 1.007 1.008 2.026 1.513 3.058 1.513 1.117 0 2.399-.496 3.845-1.488v4.186l1.46 1.614h.532V9.18h6.319v12.697l1.421 1.614h.572V9.18h11.623v4.388c-1.117-1.345-2.403-2.018-3.858-2.018-.761 0-1.43.26-2.005.782-.566.513-.85 1.219-.85 2.118 0 1.017.309 1.858.927 2.522.617.656 1.446.984 2.486.984 1.041 0 2.14-.496 3.3-1.488v5.384l1.484 1.677h.508v-8.448c.947-.832 1.844-1.249 2.69-1.249.592 0 1.036.19 1.332.568.305.378.457.945.457 1.702 0 1.026-.398 2.224-1.193 3.594l1.421 1.387c.711-1.244 1.066-2.43 1.066-3.556 0-1.43-.431-2.585-1.294-3.468-.854-.882-1.806-1.324-2.855-1.324-.617 0-1.159.135-1.624.404v-3.96H51.213v3.96c0 .874.266 1.618.8 2.232a7.905 7.905 0 0 0 1.94 1.563c.754.437 1.51.656 2.272.656.888 0 1.65-.273 2.284-.82v5.082l1.497 1.677h.495V9.179h6.319v12.698l1.422 1.614h.57V9.18h6.307v12.697l1.421 1.614h.571V9.18H90.586v2.357h-4.478c-.804 0-1.405.135-1.802.404-.398.269-.597.668-.597 1.198 0 .605.457 1.5 1.37 2.686.914 1.177 1.545 1.765 1.892 1.765.152 0 .68-.118 1.586-.353.913-.227 1.535-.34 1.865-.34.313 0 .57.113.774.34.211.227.317.5.317.82 0 .58-.36 1.139-1.078 1.677a4.005 4.005 0 0 1-2.437.794c-.99 0-1.988-.4-2.994-1.198-.999-.807-2.005-2.013-3.02-3.619l-.559.265c1.286 2.043 2.564 3.577 3.832 4.602 1.27 1.018 2.526 1.526 3.77 1.526.955 0 1.818-.273 2.588-.82.778-.554 1.167-1.202 1.167-1.941 0-.9-.406-1.761-1.218-2.585-.804-.832-1.925-1.249-3.363-1.249-.431 0-.875.05-1.332.152-.457.1-.702.151-.736.151-.178 0-.41-.218-.698-.656-.288-.445-.431-.79-.431-1.034 0-.53.478-.794 1.434-.794h5.938L92.11 9.18h7.816c.592.563.888 1.244.888 2.042 0 1.009-.33 1.8-.99 2.37-.66.564-1.65.904-2.969 1.022v.252c1.49 1.665 2.67 2.787 3.54 3.367.88.58 1.739.87 2.576.87 1.159 0 2.119-.307 2.881-.92v3.631l1.725 1.715h.267V9.179h6.319v12.597l1.523 1.753h.469V9.179H120V7.39H92.503c-1.599-2.463-3.418-4.308-5.456-5.535C85.017.618 82.77 0 80.309 0c-1.565 0-2.931.294-4.099.883-1.472.748-2.208 1.828-2.208 3.24 0 1.194.516 2.283 1.548 3.266H68.812c-.727-2.177-1.543-3.833-2.448-4.968C65.078.807 63.496 0 61.618 0c-1.218 0-2.22.382-3.007 1.147-.796.765-1.193 1.749-1.193 2.951 0 1.152.347 2.249 1.04 3.291H42.115c-1.447-2.463-3.088-4.308-4.924-5.535C35.356.618 33.326 0 31.101 0c-1.472 0-2.741.315-3.807.946-1.269.748-1.903 1.807-1.903 3.177 0 1.194.516 2.283 1.548 3.266h-6.725c-1.6-2.463-3.418-4.308-5.457-5.535C12.727.618 10.481 0 8.02 0 6.454 0 5.09.294 3.921.883c-1.472.748-2.208 1.828-2.208 3.24 0 1.194.516 2.283 1.548 3.266H0v1.79h2.83v12.698l1.42 1.614h.572V9.18ZM91.64 7.39c-1.616-1.892-3.341-3.309-5.177-4.25a12.5 12.5 0 0 0-5.824-1.425c-1.548 0-2.707.256-3.477.769-.77.504-1.155 1.261-1.155 2.27 0 .9.267 1.778.8 2.635H91.64Zm-31.659 0h8.096c-.855-1.892-1.773-3.313-2.754-4.263-.981-.95-2.026-1.425-3.134-1.425-.922 0-1.616.252-2.081.757-.465.504-.698 1.26-.698 2.27 0 .849.19 1.735.571 2.66Zm-18.729 0c-1.43-1.892-2.957-3.309-4.58-4.25-1.625-.95-3.346-1.425-5.165-1.425-1.37 0-2.398.256-3.084.769-.685.504-1.027 1.261-1.027 2.27 0 .9.266 1.778.799 2.635H41.252Zm-21.901 0c-1.616-1.892-3.342-3.309-5.177-4.25a12.5 12.5 0 0 0-5.825-1.425c-1.548 0-2.707.256-3.476.769-.77.504-1.155 1.261-1.155 2.27 0 .9.266 1.778.8 2.635H19.35Zm-1.155 6.67v.63c-.076.445-.808 1.076-2.195 1.891-1.388.807-2.369 1.21-2.944 1.21-.5 0-.935-.176-1.307-.529a1.804 1.804 0 0 1-.558-1.35c0-.68.554-1.29 1.662-1.827 1.108-.547 2.161-.82 3.16-.82.727 0 1.454.265 2.182.794Zm21.927.113v.24c-1.777 1.63-3.151 2.446-4.124 2.446-.525 0-.94-.143-1.244-.43-.296-.293-.444-.667-.444-1.121 0-.521.288-.984.863-1.387.584-.412 1.4-.618 2.449-.618 1.015 0 1.848.29 2.5.87ZM58.509 9.18h-5.304v4.917c0 1.101.207 1.795.622 2.08.414.278.9.417 1.459.417.998 0 2.073-.647 3.223-1.942V9.18Zm47.343 0h-5.165c1.21.823 1.815 1.84 1.815 3.051 0 .992-.313 1.812-.939 2.459-.618.639-1.548 1.101-2.792 1.387.6.546 1.163.954 1.688 1.223.533.269 1.032.403 1.497.403.846 0 1.62-.23 2.322-.693.711-.462 1.151-.883 1.32-1.261.169-.378.254-1.114.254-2.207V9.18Z" clip-rule="evenodd"/></svg>
